src/assets/images/event_overview_widget.svg

<svg height="100" viewBox="0 0 150 100" width="150" xmlns="http://www.w3.org/2000/svg"><g fill="none" fill-rule="evenodd"><g transform="translate(24 45)"><path d="m-.5-.5h49v26h-49z" stroke="#ff6b6b"/><path d="m21.003992 7.88136703 3.8525517 6.81372927c.0474069.0838454.1497982.1057482.2257952.0510117l3.2680852-2.3538253c.1529692-.1101754.3566704-.0717395.4588187.0920033l5.9394685 7.0978393c.1004294.1609874.0278159.2914936-.1495104.2914936h-20.8875941c-.1834901 0-.2632132-.136308-.1765663-.3074147l7.1419211-11.6804918c.0859752-.16978043.2340999-.16870493.3270304-.00434537zm10.8701658 1.25324835c.9800412 0 1.7745216-.81363633 1.7745216-1.81730769s-.7944804-1.81730769-1.7745216-1.81730769c-.9800411 0-1.7745215.81363633-1.7745215 1.81730769s.7944804 1.81730769 1.7745215 1.81730769z" fill="#ff6b6b" opacity=".12"/><path d="m3.5 17.5h21.5v2.5h-21.5z" fill="#ff6b6b"/><path d="m3.75 21.75h12" stroke="#ff6b6b" stroke-linecap="square" stroke-width=".5"/><circle cx="6" cy="6" fill="#ff6b6b" r="3"/></g><g fill="#ff6b6b"><rect height="5" rx="2.5" width="19" x="43" y="31"/><rect height="5" opacity=".2" rx="2.5" width="19" x="66" y="31"/><rect height="5" opacity=".2" rx="2.5" width="19" x="88" y="31"/></g><g transform="translate(78 45)"><path d="m-.5-.5h49v26h-49z" stroke="#ff6b6b"/><path d="m21.003992 7.88136703 3.8525517 6.81372927c.0474069.0838454.1497982.1057482.2257952.0510117l3.2680852-2.3538253c.1529692-.1101754.3566704-.0717395.4588187.0920033l5.9394685 7.0978393c.1004294.1609874.0278159.2914936-.1495104.2914936h-20.8875941c-.1834901 0-.2632132-.136308-.1765663-.3074147l7.1419211-11.6804918c.0859752-.16978043.2340999-.16870493.3270304-.00434537zm10.8701658 1.25324835c.9800412 0 1.7745216-.81363633 1.7745216-1.81730769s-.7944804-1.81730769-1.7745216-1.81730769c-.9800411 0-1.7745215.81363633-1.7745215 1.81730769s.7944804 1.81730769 1.7745215 1.81730769z" fill="#ff6b6b" opacity=".12"/><path d="m3.5 17.5h21.5v2.5h-21.5z" fill="#ff6b6b"/><path d="m3.75 21.75h12" stroke="#ff6b6b" stroke-linecap="square" stroke-width=".5"/><circle cx="6" cy="6" fill="#ff6b6b" r="3"/></g></g></svg>

<?xml version="1.0" encoding="UTF-8"?>
<svg width="150px" height="100px" viewBox="0 0 150 100" version="1.1" xmlns="http://www.w3.org/2000/svg" xmlns:xlink="http://www.w3.org/1999/xlink">
    <!-- Generator: Sketch 47.1 (45422) - http://www.bohemiancoding.com/sketch -->
    <title>event_overview</title>
    <desc>Created with Sketch.</desc>
    <defs></defs>
    <g id="Page-1" stroke="none" stroke-width="1" fill="none" fill-rule="evenodd">
        <g id="event_overview">
            <g id="Group-2" transform="translate(24.000000, 45.000000)">
                <g id="Group" stroke="#FF6B6B">
                    <rect id="Rectangle-5" x="-0.5" y="-0.5" width="49" height="26"></rect>
                </g>
                <path d="M21.003992,7.88136703 L24.8565437,14.6950963 C24.9039506,14.7789417 25.0063419,14.8008445 25.0823389,14.746108 L28.3504241,12.3922827 C28.5033933,12.2821073 28.7070945,12.3205432 28.8092428,12.484286 L34.7487113,19.5821253 C34.8491407,19.7431127 34.7765272,19.8736189 34.5992009,19.8736189 L13.7116068,19.8736189 C13.5281167,19.8736189 13.4483936,19.7373109 13.5350405,19.5662042 L20.6769616,7.8857124 C20.7629368,7.71593197 20.9110615,7.71700747 21.003992,7.88136703 Z M31.8741578,9.13461538 C32.854199,9.13461538 33.6486794,8.32097905 33.6486794,7.31730769 C33.6486794,6.31363633 32.854199,5.5 31.8741578,5.5 C30.8941167,5.5 30.0996363,6.31363633 30.0996363,7.31730769 C30.0996363,8.32097905 30.8941167,9.13461538 31.8741578,9.13461538 Z" id="path-1" fill="#FF6B6B" opacity="0.119999997"></path>
                <rect id="Rectangle" fill="#FF6B6B" x="3.5" y="17.5" width="21.5" height="2.5"></rect>
                <path d="M3.75,21.75 L15.75,21.75" id="Line" stroke="#FF6B6B" stroke-width="0.5" stroke-linecap="square"></path>
                <circle id="Oval-2" fill="#FF6B6B" cx="6" cy="6" r="3"></circle>
            </g>
            <rect id="Rectangle-2" fill="#FF6B6B" x="43" y="31" width="19" height="5" rx="2.5"></rect>
            <rect id="Rectangle-2" fill="#FF6B6B" opacity="0.200000003" x="66" y="31" width="19" height="5" rx="2.5"></rect>
            <rect id="Rectangle-2" fill="#FF6B6B" opacity="0.200000003" x="88" y="31" width="19" height="5" rx="2.5"></rect>
            <g id="Group-2" transform="translate(78.000000, 45.000000)">
                <g id="Group" stroke="#FF6B6B">
                    <rect id="Rectangle-5" x="-0.5" y="-0.5" width="49" height="26"></rect>
                </g>
                <path d="M21.003992,7.88136703 L24.8565437,14.6950963 C24.9039506,14.7789417 25.0063419,14.8008445 25.0823389,14.746108 L28.3504241,12.3922827 C28.5033933,12.2821073 28.7070945,12.3205432 28.8092428,12.484286 L34.7487113,19.5821253 C34.8491407,19.7431127 34.7765272,19.8736189 34.5992009,19.8736189 L13.7116068,19.8736189 C13.5281167,19.8736189 13.4483936,19.7373109 13.5350405,19.5662042 L20.6769616,7.8857124 C20.7629368,7.71593197 20.9110615,7.71700747 21.003992,7.88136703 Z M31.8741578,9.13461538 C32.854199,9.13461538 33.6486794,8.32097905 33.6486794,7.31730769 C33.6486794,6.31363633 32.854199,5.5 31.8741578,5.5 C30.8941167,5.5 30.0996363,6.31363633 30.0996363,7.31730769 C30.0996363,8.32097905 30.8941167,9.13461538 31.8741578,9.13461538 Z" id="path-1" fill="#FF6B6B" opacity="0.119999997"></path>
                <rect id="Rectangle" fill="#FF6B6B" x="3.5" y="17.5" width="21.5" height="2.5"></rect>
                <path d="M3.75,21.75 L15.75,21.75" id="Line" stroke="#FF6B6B" stroke-width="0.5" stroke-linecap="square"></path>
                <circle id="Oval-2" fill="#FF6B6B" cx="6" cy="6" r="3"></circle>
            </g>
        </g>
    </g>
</svg>
